storage/app/icons/phosphoricons/fill/bus-fill.svg

<svg xmlns="http://www.w3.org/2000/svg" fill="currentColor" viewBox="0 0 256 256"><path d="M248 80v24a8 8 0 0 1-16 0V80a8 8 0 0 1 16 0M16 72a8 8 0 0 0-8 8v24a8 8 0 0 0 16 0V80a8 8 0 0 0-8-8m200-8v144a16 16 0 0 1-16 16h-16a16 16 0 0 1-16-16v-8H88v8a16 16 0 0 1-16 16H56a16 16 0 0 1-16-16V64a32 32 0 0 1 32-32h112a32 32 0 0 1 32 32m-112 84a12 12 0 1 0-12 12 12 12 0 0 0 12-12m72 0a12 12 0 1 0-12 12 12 12 0 0 0 12-12m24-76H56v40h144Z"/></svg>

<svg xmlns="http://www.w3.org/2000/svg" viewBox="0 0 256 256" fill="currentColor"><path d="M248,80v24a8,8,0,0,1-16,0V80a8,8,0,0,1,16,0ZM16,72a8,8,0,0,0-8,8v24a8,8,0,0,0,16,0V80A8,8,0,0,0,16,72Zm200-8V208a16,16,0,0,1-16,16H184a16,16,0,0,1-16-16v-8H88v8a16,16,0,0,1-16,16H56a16,16,0,0,1-16-16V64A32,32,0,0,1,72,32H184A32,32,0,0,1,216,64ZM104,148a12,12,0,1,0-12,12A12,12,0,0,0,104,148Zm72,0a12,12,0,1,0-12,12A12,12,0,0,0,176,148Zm24-76H56v40H200Z"/></svg>
